!!!OTL: ICH UND MEIN JUNGES WEIB
!!!ARE: Europa, Mitteleuropa, Deutschland
!!!SCT: F0159
!!!YEM: Copyright 1995, estate of Helmut Schaffrath.
**kern
*ICvox
*Ivox
*M3/8
*k[]
*C:
=1
{8c
8c
8c
=2
8.B
16A
8G
=3
8A
8A
8B
=4
8.c
16d
8c}
=5
{8c
8c
8c
=6
8.B
16A
8G
=7
8A
8A
8B
=8
8.c
16d
8c}
=9
{8e
8e
8e
=10
8f
8f
8f
=11
8d
8d
8d
=12
8g
8g
8g}
=13
{4c
8c
=14
4d
8d
=15
8G
8A
8B
=16
4c
8r}
==
!!!AGN: Bettler - Lied
!!!ONB: ESAC (Essen Associative Code) Database: FINK
!!!AMT: simple triple
!!!AIN: vox
!!!EED: Helmut Schaffrath
!!!EEV: 1.0
*-
